X: 1906
T:Diplodocus, The
R:Double Jig
N:IrTrad, 6/99, Jeffrey Myers <jmyers@GOUCHER.EDU>
C:Liz Carroll
D:Trian, _Trian_
M:6/8
L:1/8
K:AMix
A2B||:cAA edB|cAA ABc|dff ~g3|aee fed|
cAA BAG|EAA AGE|DFF G2A|1 BAA A2B:|2 BAA A2e||
efe e2d|cAB AGE|~G3 GEF|GAG FED|
efe e2d|cAB AGE|DFF G2A|BAA A2e|
efe e2d|cAB AGE|~g3 gef|gag fed|
efe e2d|cAB AGE|DFF G2A|BAA Afg|
||:aAA Aaf|~g3 efg|fdd def|~g3 efg|
aAA Aaf|~g3 efg|fdd e2d|1 cAA Afg:|2cAA A2B||
